assets/logo/visual-studio-code-seeklogo.com.svg

<?xml version="1.0" encoding="UTF-8"?>
<svg width="256px" height="256px" viewBox="0 0 256 256" version="1.1" xmlns="http://www.w3.org/2000/svg" xmlns:xlink="http://www.w3.org/1999/xlink" preserveAspectRatio="xMidYMid">
    <g>
        <path d="M191.97885,0 L191.97885,219.867316 L0,191.353848 L191.97885,255.998083 L255.97885,229.374998 L255.97885,30.592308 L256,30.5826932 L255.97885,30.5403853 L255.97885,26.6250001 L191.97885,0 Z M124.796158,37.4576925 L65.9942314,95.5826932 L30.5923079,68.9211553 L16.0019234,73.7942316 L52.0192315,109.398076 L16.0019234,145.000006 L30.5923079,149.875005 L65.9942314,123.211541 L65.9961553,123.211541 L124.794228,181.332699 L160.011538,166.369233 L160.011538,52.4211546 L124.796158,37.4576925 Z M124.794228,78.9307702 L124.794228,139.857695 L84.340386,109.394236 L124.794228,78.9307702 Z" fill="#016EC5"></path>
    </g>
</svg>

<?xml version="1.0" encoding="UTF-8" standalone="no"?>
<svg
   width="276.82016"
   height="271.83505"
   viewBox="0 0 276.82016 271.83506"
   version="1.1"
   preserveAspectRatio="xMidYMid"
   id="svg1716"
   sodipodi:docname="visual-studio-code-seeklogo.com.svg"
   inkscape:version="1.1 (c68e22c387, 2021-05-23)"
   xmlns:inkscape="http://www.inkscape.org/namespaces/inkscape"
   xmlns:sodipodi="http://sodipodi.sourceforge.net/DTD/sodipodi-0.dtd"
   xmlns="http://www.w3.org/2000/svg"
   xmlns:svg="http://www.w3.org/2000/svg">
  <defs
     id="defs1720" />
  <sodipodi:namedview
     id="namedview1718"
     pagecolor="#ffffff"
     bordercolor="#666666"
     borderopacity="1.0"
     inkscape:pageshadow="2"
     inkscape:pageopacity="0.0"
     inkscape:pagecheckerboard="0"
     showgrid="false"
     fit-margin-top="0"
     fit-margin-left="0"
     fit-margin-right="0"
     fit-margin-bottom="0"
     inkscape:zoom="3.4101562"
     inkscape:cx="101.75487"
     inkscape:cy="129.90607"
     inkscape:window-width="3840"
     inkscape:window-height="2066"
     inkscape:window-x="-11"
     inkscape:window-y="-11"
     inkscape:window-maximized="1"
     inkscape:current-layer="svg1716" />
  <g
     id="g1714"
     transform="translate(5.30126,2.0526928)">
    <path
       d="M 191.97885,0 V 219.86732 L 0,191.35385 l 191.97885,64.64423 64,-26.62308 V 30.592308 l 0.0212,-0.0096 -0.0212,-0.04231 V 26.625 Z M 124.79616,37.457692 65.994231,95.582693 30.592308,68.921155 16.001923,73.794232 52.019231,109.39808 16.001923,145.00001 30.592308,149.875 65.994231,123.21154 h 0.0019 l 58.798079,58.12116 35.21731,-14.96347 V 52.421155 Z m -0.002,41.473078 v 60.92692 L 84.340386,109.39424 Z"
       fill="#016ec5"
       id="path1712" />
  </g>
</svg>
